X: 981
T: The white blanket
C: anon.
O: Ireland
B: Francis O'Neill: "The Dance Music of Ireland" (1907) no. 981
R: Long dance, set dance
Z: Transcribed by Frank Nordberg - http://www.musicaviva.com
F: http://www.musicaviva.com/abc/tunes/ireland/oneill-1001/oneill-1001-098
1.abc
m: Tn3 = n(3n/o/n/ m/n/
M: C
L: 1/8
K: G
(GA/B/)|c2E2E2(DE)|G2(AB)Tc3A|BAGE D(EFG)|A2A2A2(dc)|BAG(E DE)FA|G2G2G2(B
d)|e2(ef) ede(f|ge)dB Tc3A|
BAGE D(EFG)|A2A2A2(dc)|BAG(E DE)FA|G2G2G2(Bd)|e2(ef) edef|g(edB) Tc3A|BAG
(E DE)FG|A2A2A2(dc)|BAGE D(EFA)|G2G2G2|]
W:
W:
W: From Musica Viva - http://www.musicaviva.com
W: the Internet center for free sheet music downloads.


